X:42
T:Curly-Headed Ploughboy, The
R:Reel
O:England
M:4/4
K:G
|:d>c|"G"B2d2 "Em"G2B2|"C"E2_E2 "G"D2G2|"D7"FGAB "C"c2B2|"G"BdcB "D7"A2d>c|
"G"B2d2 "Em"G2B2|"C"E2_E2 "G"D2G2|"D7"FGAB c2F2|"G"G6:|
K:D
|:d2|"A7"c2c2 cABc|"D"d2d2 d2ed|"A7"c2c2 cABc|"D"d4 "E7"e3d|
"A7"c2c2 cABc|"D"d2A2 "G"B2G2|"A7"F2E2 A2C2|"D"D6:|
